brandFactory_export/2.Regular/Documento_Archivo illustrator_2Regular.svg

<?xml version="1.0" encoding="UTF-8"?>
<svg width="24px" height="24px" viewBox="0 0 24 24" version="1.1" xmlns="http://www.w3.org/2000/svg" xmlns:xlink="http://www.w3.org/1999/xlink">
    <title>2.Regular/Documento_Archivo illustrator_2Regular</title>
    <g id="Symbols" stroke="none" stroke-width="1" fill="none" fill-rule="evenodd">
        <g id="2.Regular/Documento_Archivo-illustrator_2Regular" fill="#5CB615" fill-rule="nonzero">
            <path d="M16.2117647,0.0302521008 C16.4907563,0.0302521008 16.7495798,0.137815126 16.9512605,0.329411765 L23.307563,6.48067227 C23.4386555,6.61176471 23.5159664,6.77310924 23.5663866,6.94453782 C23.6033613,7.03193277 23.6235294,7.12941176 23.6235294,7.2302521 L23.6235294,21.9966387 C23.6235294,22.897479 22.8504202,23.6571429 21.9327731,23.6571429 L7.31428571,23.6571429 C6.41344538,23.6571429 5.62352941,22.8806723 5.62352941,21.9966387 L5.66386555,18.6689076 L2.90420168,18.6689076 C1.30420168,18.6689076 2.19149143e-10,17.3613445 2.19149143e-10,15.7579832 L2.19149143e-10,10.8470588 C2.19149143e-10,9.24369748 1.30420168,7.93613445 2.90420168,7.93613445 L5.62352941,7.93613445 L5.62352941,1.6907563 C5.62352941,0.820168067 6.4302521,0.0302521008 7.31428571,0.0302521008 L16.2117647,0.0302521008 Z M15.1596639,1.49243697 L7.31764706,1.49243697 C7.2302521,1.49243697 7.09243698,1.62352941 7.08571429,1.69411765 L7.08571429,7.93613445 L14.7226891,7.93613445 C16.3260504,7.93613445 17.6268908,9.24369748 17.6268908,10.8470588 L17.6268908,15.7579832 C17.6268908,17.3613445 16.3226891,18.6689076 14.7226891,18.6689076 L7.12605042,18.6689076 L7.08571429,22.0033613 C7.08571429,22.0638655 7.20672269,22.194958 7.31764706,22.194958 L21.9327731,22.194958 L21.9327731,22.1983193 C22.0504202,22.1983193 22.1647059,22.0840336 22.1647059,21.9966387 L22.1647059,8.27563025 L19.3915966,8.27563025 C18.1747899,8.27563025 17.1226891,7.8789916 16.3495798,7.13277311 C15.5697479,6.37983193 15.1596639,5.34789916 15.1596639,4.15462185 L15.1596639,1.49243697 Z M14.7193277,9.39831933 L2.90420168,9.39831933 C2.10420168,9.39831933 1.45546219,10.0504202 1.45546219,10.8504202 L1.45546219,15.7613445 C1.45546219,16.5613445 2.10420168,17.2134454 2.90420168,17.2134454 L14.7193277,17.2134454 C15.5193277,17.2134454 16.1680672,16.5613445 16.1680672,15.7613445 L16.1680672,10.8504202 C16.1680672,10.0504202 15.5193277,9.39831933 14.7193277,9.39831933 Z M8.42689076,11.0319328 L10.0739496,15.5966387 L8.95798319,15.5966387 L8.57815126,14.4504202 L7.09579832,14.4504202 L6.74285714,15.5966387 L5.74789916,15.5966387 L7.28067227,11.0319328 L8.42689076,11.0319328 Z M11.6605042,11.0319328 L11.6605042,15.5966387 L10.6184874,15.5966387 L10.6184874,11.0319328 L11.6605042,11.0319328 Z M7.82857143,12.1714286 L7.81512605,12.1714286 L7.34117647,13.6941176 L8.32941176,13.6941176 L7.82857143,12.1714286 Z M16.6184874,2.03697479 L16.6184874,4.15462185 C16.6184874,4.94453782 16.8773109,5.61008403 17.3647059,6.08403361 C17.8621849,6.56470588 18.5613445,6.81680672 19.394958,6.81680672 L21.5563025,6.81680672 L16.6184874,2.03697479 Z" id="Documento_Archivo-illustrator_2Regular"></path>
        </g>
    </g>
</svg>

<svg width="24" height="24" viewBox="0 0 24 24" xmlns="http://www.w3.org/2000/svg"><path d="M16.212.03c.279 0 .538.108.74.3l6.356 6.15c.13.132.208.293.258.465a.735.735 0 01.058.285v14.767c0 .9-.774 1.66-1.691 1.66H7.314c-.9 0-1.69-.776-1.69-1.66l.04-3.328h-2.76A2.913 2.913 0 010 15.758v-4.91a2.913 2.913 0 012.904-2.912h2.72V1.691c0-.87.806-1.66 1.69-1.66h8.898zM15.16 1.492H7.318c-.088 0-.226.132-.232.202v6.242h7.637a2.91 2.91 0 012.904 2.911v4.911a2.913 2.913 0 01-2.904 2.91H7.126l-.04 3.335c0 .06.12.192.232.192h14.615v.003c.117 0 .232-.114.232-.201V8.276h-2.773c-1.217 0-2.27-.397-3.042-1.143-.78-.753-1.19-1.785-1.19-2.978V1.492zm-.44 7.906H2.903c-.8 0-1.449.652-1.449 1.452v4.911c0 .8.65 1.452 1.45 1.452h11.814c.8 0 1.45-.652 1.45-1.452v-4.91c0-.8-.65-1.453-1.45-1.453zm-6.293 1.634l1.647 4.565H8.958l-.38-1.147H7.096l-.353 1.147h-.995l1.533-4.565h1.146zm3.234 0v4.565h-1.043v-4.565h1.043zm-3.832 1.14h-.014l-.474 1.522h.988l-.5-1.523zm8.79-10.135v2.118c0 .79.258 1.455.746 1.929.497.48 1.196.733 2.03.733h2.161l-4.938-4.78z" fill="#5CB615" fill-rule="nonzero"/></svg>
